app/img/icn-big-warning.svg

<?xml version="1.0" encoding="UTF-8" standalone="no"?>
<svg width="30px" height="30px" viewBox="0 0 30 30" version="1.1" xmlns="http://www.w3.org/2000/svg" xmlns:xlink="http://www.w3.org/1999/xlink">
    <!-- Generator: Sketch 48.2 (47327) - http://www.bohemiancoding.com/sketch -->
    <title>icn-big-warning</title>
    <desc>Created with Sketch.</desc>
    <defs></defs>
    <g id="Symbols" stroke="none" stroke-width="1" fill="none" fill-rule="evenodd">
        <g id="icn-big-warning">
            <g>
                <rect id="contain-box" x="0" y="0" width="30" height="30"></rect>
                <path d="M14.0022461,20.9725645 L14.0022461,21.0267618 C14.0022461,21.5659358 14.4502713,22 15.0023024,22 C15.5543335,22 16.0023587,21.5659358 16.0023587,21.0267618 L16.0023587,20.9725645 C16.0023587,20.435337 15.5543335,19.9993263 15.0023024,19.9993263 C14.4502713,19.9993263 14.0022461,20.435337 14.0022461,20.9725645 Z M14.0022461,11.8723229 L14.0022461,18.1694253 C14.0022461,18.5612791 14.4502713,18.9982483 15.0023024,18.9982483 C15.5543335,18.9982483 16.0023587,18.5612791 16.0023587,18.1694253 L16.0023587,11.8723229 C16.0023587,11.4818837 15.5543335,10.9832479 15.0023024,10.9832479 C14.4502713,10.9832479 14.0022461,11.4818837 14.0022461,11.8723229 Z M23.7454224,23.9910889 L6.20446777,23.9910889 C5.81774095,23.9910889 5.47617929,23.7767467 5.28987294,23.4155128 C5.10356658,23.05278 5.1176807,22.6300913 5.32656965,22.2838463 L14.1161978,7.47271729 C14.5085703,6.82519422 15.4824444,6.82519422 15.8748169,7.47271729 L24.6233205,22.2838463 C24.8322094,22.6300913 24.8463236,23.05278 24.6586058,23.4155128 C24.4737108,23.7767467 24.1307378,23.9910889 23.7454224,23.9910889 Z M17.1535465,5.71183991 C16.6813673,4.94164923 15.8767504,4.48291016 15.0000563,4.48291016 C14.1233622,4.48291016 13.3187453,4.94164923 12.8465661,5.71183991 L3.34827737,21.8909576 C2.83491119,22.7255865 2.80255,23.7427905 3.25854861,24.6111729 C3.71454723,25.4826237 4.55299629,25.999664 5.50176761,25.999664 L24.4358168,25.999664 C25.3845881,25.999664 26.2230372,25.4826237 26.6790358,24.6127071 C27.1350344,23.7427905 27.1012022,22.7255865 26.5878361,21.8909576 L17.1535465,5.71183991 Z" id="Shape" fill="#FFFFFF" fill-rule="nonzero"></path>
            </g>
        </g>
    </g>
</svg>

<svg width="30" height="30" xmlns="http://www.w3.org/2000/svg"><g fill="none" fill-rule="evenodd"><path d="M0 0h30v30H0z"/><path d="M14.002 20.973v.054c0 .539.448.973 1 .973s1-.434 1-.973v-.054a.987.987 0 0 0-1-.974c-.552 0-1 .436-1 .974zm0-9.1v6.296c0 .392.448.83 1 .83s1-.438 1-.83v-6.297c0-.39-.448-.889-1-.889s-1 .499-1 .89zm9.743 12.118H6.205a1.02 1.02 0 0 1-.915-.575 1.155 1.155 0 0 1 .037-1.132l8.79-14.811c.392-.648 1.365-.648 1.758 0l8.748 14.81c.21.347.223.77.036 1.133a1.019 1.019 0 0 1-.914.575zm-6.591-18.28c-.473-.77-1.277-1.228-2.154-1.228s-1.681.459-2.153 1.229L3.348 21.89a2.728 2.728 0 0 0-.09 2.72C3.716 25.483 4.554 26 5.503 26h18.934c.949 0 1.787-.517 2.243-1.387a2.73 2.73 0 0 0-.091-2.722l-9.434-16.18z" fill="#FFF" fill-rule="nonzero"/></g></svg>
